packages/kaspersky-hexa-ui-icons/src/iconsSVGs/24/CodeInjection.svg

<svg width="24" height="24" viewBox="0 0 24 24" fill="none" xmlns="http://www.w3.org/2000/svg">
<path d="M6 22.0001C4.34315 22.0001 3 20.6569 3 19.0001V14.0001C3 12.3432 4.34315 11.0001 6 11.0001H6.66667C7.21895 11.0001 7.66667 11.4478 7.66667 12.0001C7.66667 12.5523 7.21895 13.0001 6.66667 13.0001H6C5.44772 13.0001 5 13.4478 5 14.0001V19.0001C5 19.5523 5.44772 20.0001 6 20.0001H18C18.5523 20.0001 19 19.5523 19 19.0001V14.0001C19 13.4478 18.5523 13.0001 18 13.0001H17.3333C16.781 13.0001 16.3333 12.5523 16.3333 12.0001C16.3333 11.4478 16.781 11.0001 17.3333 11.0001H18C19.6569 11.0001 21 12.3432 21 14.0001V19.0001C21 20.6569 19.6569 22.0001 18 22.0001H6Z" fill="black"/>
<path d="M12 19.0001C12.2652 19.0001 12.5196 18.8947 12.7071 18.7072L15.7071 15.7072C16.0976 15.3166 16.0976 14.6835 15.7071 14.293C15.3166 13.9024 14.6834 13.9024 14.2929 14.293L13 15.5858V5.00006C13 4.44777 12.5523 4.00006 12 4.00006C11.4477 4.00006 11 4.44777 11 5.00006V15.5858L9.70711 14.293C9.31658 13.9024 8.68342 13.9024 8.29289 14.2929C7.90237 14.6835 7.90237 15.3166 8.29289 15.7072L11.2929 18.7072C11.4804 18.8947 11.7348 19.0001 12 19.0001Z" fill="black"/>
<path d="M9.6 8.20006C10.0418 8.53143 10.1314 9.15823 9.8 9.60006C9.46863 10.0419 8.84183 10.1314 8.4 9.80006L4.4 6.80006C4.14819 6.6112 4 6.31482 4 6.00006C4 5.6853 4.14819 5.38891 4.4 5.20006L8.4 2.20006C8.84183 1.86869 9.46863 1.95823 9.8 2.40006C10.1314 2.84189 10.0418 3.46869 9.6 3.80006L6.66667 6.00006L9.6 8.20006Z" fill="black"/>
<path d="M14.2 9.60006C13.8686 9.15823 13.9582 8.53143 14.4 8.20006L17.3333 6.00006L14.4 3.80006C13.9582 3.46869 13.8686 2.84189 14.2 2.40006C14.5314 1.95823 15.1582 1.86869 15.6 2.20006L19.6 5.20006C19.8518 5.38891 20 5.6853 20 6.00006C20 6.31482 19.8518 6.6112 19.6 6.80006L15.6 9.80006C15.1582 10.1314 14.5314 10.0419 14.2 9.60006Z" fill="black"/>
</svg>

<svg xmlns="http://www.w3.org/2000/svg" width="24" height="24" fill="none" viewBox="0 0 24 24"><path d="M0 24.0001h24v-24H0z"/><path fill="#000" fill-rule="evenodd" d="M9.6 8.2c.4418.3314.5314.9582.2 1.4-.3314.4419-.9582.5314-1.4.2l-4-3a1 1 0 0 1 0-1.6l4-3c.4418-.3313 1.0686-.2418 1.4.2.3314.4419.2418 1.0687-.2 1.4L6.6667 6zm4.6 1.4c-.3314-.4418-.2418-1.0686.2-1.4L17.3333 6 14.4 3.8c-.4418-.3313-.5314-.9581-.2-1.4s.9582-.5313 1.4-.2l4 3a1 1 0 0 1 0 1.6l-4 3c-.4418.3314-1.0686.2419-1.4-.2M12 19.0002c.2652 0 .5196-.1054.7071-.2929l3-3c.3905-.3906.3905-1.0237 0-1.4142-.3905-.3906-1.0237-.3906-1.4142 0L13 15.5858V5.0001c0-.5523-.4477-1-1-1s-1 .4477-1 1v10.5857L9.7071 14.293c-.3905-.3906-1.0237-.3906-1.4142 0s-.3905 1.0236 0 1.4142l3 3c.1875.1875.4419.2929.7071.2929m-6 3c-1.6569 0-3-1.3432-3-3v-5c0-1.6569 1.3431-3 3-3h.6667c.5523 0 1 .4477 1 1s-.4477 1-1 1H6c-.5523 0-1 .4477-1 1v5c0 .5522.4477 1 1 1h12c.5523 0 1-.4478 1-1v-5c0-.5523-.4477-1-1-1h-.6667c-.5523 0-1-.4478-1-1s.4477-1 1-1H18c1.6569 0 3 1.3431 3 3v5c0 1.6568-1.3431 3-3 3z"/></svg>
